X:1
T:Title
%%score 1 { 2 | 3 }
L:1/8
M:4/4
K:Ab
V:1 treble nm="Church Organ, Staff"
V:2 bass nm="Church Organ, Staff-1"
V:3 bass 
V:1
 [EA]2 [EB]2 [Ec]2 [Ad]2 | [Ge]2 [Fd]E [Ec]2 [EB]2 | [CA]2 [EA]2 [FA]2 [Fd]2 | [Ec]2 BD [CA]4 | %4
w: By~Essay~on~the~Church~Plain~Chant,~1782;~arr. * * *||||
 [DF]2 [DF]2 [CE]2 [CE]2 | [CA]2 [EA]2 [EA]2 [EG]2 | [EB]2 [Ee]2 [Ec]2 [EA]F | [EG]2 [=DF]2 E4 | %8
w: ||||
 [EG]2 [EG]2 [EA]2 [CE]2 | F2 [=EG]2 [FA]2 [GB]2 | [Ac]B[EA]G [DF]2 [Fd]2 | [Ec]2 BD [CA]4 |] %12
w: ||||
V:2
 [A,C]2 [G,B,]2 A,2 [F,A,]2 | B,2 [F,A,][G,B,] A,2 G,2 | [F,A,]2 A,2 A,2 A,2 | A,2 G,2 A,4 | %4
 A,2 A,2 A,B,[K:treble]CD | E2 C2 C2[K:bass] B,2 | [G,B,]2 G,2 A,2 C2 | B,3 A, G,4 | %8
 B,2 B,2 A,2 A,2 | A,2 C2 [F,C]2 E2 | [A,E]2 A,2 A,2 A,2 | A,2 G,2 A,4 |] %12
V:3
 z8 | E,2 z2 z2 E,2 | z2 C,2 D,2 B,,2 | E,2 E,2 A,,4 | D,2 D,2 A,,2 A,,2 | A,,B,,C,D, E,2 E,2 | %6
 z2 E,2 z2 A,,2 | B,,2 B,,2 E,4 | E,3 D, C,2 A,,2 | D,2 C,2 z2 E,2 | z2 C,2 D,2 B,,2 | %11
 C,D, E,2 A,,4 |] %12

